img/icon-community.svg

<svg width="256" height="256" viewBox="0 0 256 256" fill="none" xmlns="http://www.w3.org/2000/svg">
<path d="M214.162 95.7884C217.97 99.1736 222.731 100.866 227.491 100.866C232.621 100.866 237.752 98.9091 241.666 94.995C243.623 93.038 246.691 88.8066 250.711 74.6843C252.774 67.3851 254.149 60.8793 254.202 60.6149L255.947 52.3107L247.643 54.0562C247.378 54.1091 240.873 55.4843 233.574 57.5471C233.15 57.6529 232.727 57.8116 232.304 57.9174C233.097 55.5372 233.521 52.9454 233.521 50.3008C233.521 48.2909 233.521 42.2083 223.154 23.5372C218.288 14.757 213.474 7.40496 213.263 7.0876L208.661 0L204.007 7.0876C203.795 7.40496 198.982 14.7041 194.116 23.5372C183.749 42.2083 183.749 48.2909 183.749 50.3008C183.749 53.0512 184.225 55.6959 185.018 58.1818C184.225 57.9702 183.378 57.8116 182.479 57.6C175.074 55.9603 168.516 55.0083 168.198 55.0083L159.841 53.7917L162.063 61.9372C162.116 62.2016 163.914 68.6016 166.453 75.7421C171.372 89.6 174.704 93.6198 176.767 95.4711C180.575 98.8562 185.335 100.496 190.043 100.496C194.697 100.496 199.299 98.9091 203.002 95.7355V168.145H147.57C153.494 138.579 151.855 113.772 142.598 94.3074C139.002 86.7967 134.876 81.4016 131.385 77.7521C134.506 73.9438 136.41 69.0777 136.41 63.7355V62.3603C136.41 50.195 126.519 40.3041 114.354 40.3041C102.188 40.3041 92.2975 50.195 92.2975 62.3603V63.7355C92.2975 75.9008 102.188 85.7917 114.354 85.7917C117.157 85.7917 119.802 85.2628 122.235 84.3107C123.24 85.2628 124.35 86.4264 125.514 87.8545C121.97 98.2744 115.094 106.367 104.992 111.921C97.1636 116.258 90.2876 117.369 90.2347 117.369L90.3405 118.215L89.3884 117.792C80.9256 137.468 65.4281 144.502 58.0231 146.83C57.4942 143.498 56.9124 140.271 56.2248 137.203C62.0959 133.236 65.957 126.519 65.957 118.955V117.58C65.957 105.415 56.0661 95.524 43.9008 95.524C31.7355 95.524 21.8446 105.415 21.8446 117.58V118.955C21.8446 131.121 31.7355 141.012 43.9008 141.012C44.4826 141.012 45.0645 140.959 45.6463 140.959C50.5653 164.707 49.243 185.917 41.6264 202.526C35.7025 215.802 27.8215 221.62 27.7686 221.62L34.1686 230.717C34.5917 230.453 44.1653 223.524 51.4645 207.974C54.5851 201.362 56.6479 194.486 57.9702 187.557C63.7884 190.942 71.8281 198.136 74.6843 212.84V244.417H0V255.524H85.7388V223.207H123.663V179.253H254.889V168.145H214.162V95.7884ZM241.402 66.9091C238.969 76.2182 235.901 85.0512 233.891 87.114C230.4 90.6049 224.688 90.6049 221.197 87.114C217.706 83.6231 217.706 77.9107 221.197 74.4198C223.207 72.4099 232.093 69.3421 241.402 66.9091ZM208.661 20.5223C218.129 36.0198 222.413 47.0215 222.413 50.2479C222.413 57.8645 216.225 64.0529 208.608 64.0529C200.992 64.0529 194.803 57.8645 194.803 50.2479C194.856 45.276 201.944 31.7355 208.661 20.5223ZM196.813 86.3736C193.534 90.076 187.874 90.4463 184.172 87.1669C182.003 85.2628 178.407 76.5884 175.392 67.4909C184.807 69.3421 193.851 71.8281 196.02 73.7322C199.722 76.9587 200.093 82.6711 196.813 86.3736ZM33.005 119.061V117.686C33.005 111.656 37.924 106.737 43.9537 106.737C49.9835 106.737 54.9025 111.656 54.9025 117.686V119.061C54.9025 125.091 49.9835 130.01 43.9537 130.01C37.924 130.01 33.005 125.091 33.005 119.061ZM136.198 168.145H123.663C124.509 158.731 132.284 147.94 139.795 139.742C139.478 149.845 138.05 159.63 136.198 168.145ZM103.458 63.7884V62.4132C103.458 56.3835 108.377 51.4645 114.407 51.4645C120.436 51.4645 125.355 56.3835 125.355 62.4132V63.7884C125.355 69.8182 120.436 74.7372 114.407 74.7372C108.324 74.6843 103.458 69.8182 103.458 63.7884ZM85.7917 212.099C83.0942 196.443 75.4777 187.187 69.2892 182.056C65.6926 179.094 62.2016 177.19 59.4512 175.974C59.8744 169.891 59.8215 163.861 59.3454 158.149C67.2793 155.98 85.9504 148.787 97.2694 127.207C105.997 124.668 123.134 117.58 132.655 99.3851C132.707 99.5438 132.813 99.7025 132.866 99.914C136.41 107.636 138.367 116.046 139.266 124.562C136.04 127.577 131.385 132.178 126.889 137.732C116.681 150.321 111.868 161.693 112.502 171.689V212.099H85.7917Z" fill="#1ED261"/>
<path d="M254.888 233.573H95.5752V244.681H254.888V233.573Z" fill="#1ED261"/>
<path d="M254.889 212.1H132.812V223.207H254.889V212.1Z" fill="#1ED261"/>
<path d="M254.889 190.625H132.812V201.732H254.889V190.625Z" fill="#1ED261"/>
</svg>

<svg width="256" height="256" fill="none" xmlns="http://www.w3.org/2000/svg"><path d="M214.162 95.788a20.014 20.014 0 0013.329 5.078c5.13 0 10.261-1.957 14.175-5.871 1.957-1.957 5.025-6.188 9.045-20.31 2.063-7.3 3.438-13.806 3.491-14.07l1.745-8.304-8.304 1.745c-.265.053-6.77 1.428-14.069 3.491-.424.106-.847.265-1.27.37a24.195 24.195 0 001.217-7.616c0-2.01 0-8.093-10.367-26.764-4.866-8.78-9.68-16.132-9.891-16.45L208.661 0l-4.654 7.088c-.212.317-5.025 7.616-9.891 16.45-10.367 18.67-10.367 24.753-10.367 26.763 0 2.75.476 5.395 1.269 7.88-.793-.21-1.64-.37-2.539-.581-7.405-1.64-13.963-2.592-14.281-2.592l-8.357-1.216 2.222 8.145c.053.265 1.851 6.665 4.39 13.805 4.919 13.858 8.251 17.878 10.314 19.73 3.808 3.384 8.568 5.024 13.276 5.024 4.654 0 9.256-1.587 12.959-4.76v72.409H147.57c5.924-29.566 4.285-54.373-4.972-73.838-3.596-7.51-7.722-12.905-11.213-16.555 3.121-3.808 5.025-8.674 5.025-14.016V62.36c0-12.165-9.891-22.056-22.056-22.056-12.166 0-22.056 9.891-22.056 22.056v1.376c0 12.165 9.89 22.056 22.056 22.056a21.53 21.53 0 007.881-1.481 37.464 37.464 0 013.279 3.543c-3.544 10.42-10.42 18.513-20.522 24.067-7.828 4.337-14.704 5.448-14.757 5.448l.106.846-.953-.423c-8.462 19.676-23.96 26.71-31.365 29.038-.529-3.332-1.11-6.559-1.798-9.627 5.87-3.967 9.732-10.684 9.732-18.248v-1.375c0-12.165-9.89-22.056-22.056-22.056s-22.056 9.891-22.056 22.056v1.375c0 12.166 9.89 22.057 22.056 22.057.582 0 1.163-.053 1.745-.053 4.92 23.748 3.597 44.958-4.02 61.567-5.923 13.276-13.804 19.094-13.857 19.094l6.4 9.097c.423-.264 9.996-7.193 17.296-22.743 3.12-6.612 5.183-13.488 6.505-20.417 5.818 3.385 13.858 10.579 16.714 25.283v31.577H0v11.107h85.739v-32.317h37.924v-43.954h131.226v-11.108h-40.727V95.788zm27.24-28.879c-2.433 9.31-5.501 18.142-7.511 20.205-3.491 3.49-9.203 3.49-12.694 0-3.491-3.49-3.491-9.203 0-12.694 2.01-2.01 10.896-5.078 20.205-7.51zm-32.741-46.387c9.468 15.498 13.752 26.5 13.752 29.726 0 7.617-6.188 13.805-13.805 13.805-7.616 0-13.805-6.188-13.805-13.805.053-4.972 7.141-18.512 13.858-29.726zm-11.848 65.852c-3.279 3.702-8.939 4.072-12.641.793-2.169-1.904-5.765-10.579-8.78-19.676 9.415 1.851 18.459 4.337 20.628 6.241 3.702 3.227 4.073 8.94.793 12.642zM33.005 119.06v-1.375c0-6.03 4.919-10.949 10.949-10.949s10.949 4.919 10.949 10.949v1.375c0 6.03-4.92 10.949-10.95 10.949-6.029 0-10.948-4.919-10.948-10.949zm103.193 49.084h-12.535c.846-9.414 8.621-20.205 16.132-28.403-.317 10.103-1.745 19.888-3.597 28.403zm-32.74-104.357v-1.375c0-6.03 4.919-10.948 10.949-10.948 6.029 0 10.948 4.918 10.948 10.948v1.375c0 6.03-4.919 10.95-10.948 10.95-6.083-.054-10.949-4.92-10.949-10.95zM85.792 212.1c-2.698-15.656-10.314-24.912-16.503-30.043a42.587 42.587 0 00-9.838-6.082 117.63 117.63 0 00-.106-17.825c7.934-2.169 26.605-9.362 37.924-30.942 8.728-2.539 25.865-9.627 35.386-27.822.052.159.158.317.211.529 3.544 7.722 5.501 16.132 6.4 24.648-3.226 3.015-7.881 7.616-12.377 13.17-10.208 12.589-15.021 23.961-14.387 33.957v40.41h-26.71z" fill="#1ED261"/><path d="M254.888 233.573H95.575v11.108h159.313v-11.108zM254.889 212.1H132.812v11.107h122.077V212.1zM254.889 190.625H132.812v11.107h122.077v-11.107z" fill="#1ED261"/></svg>
